src/assets/brands/prisma.svg

<svg width="159" height="194" viewBox="0 0 159 194" fill="none" xmlns="http://www.w3.org/2000/svg">
<path fill-rule="evenodd" clip-rule="evenodd" d="M2.39749 122.867C0.476293 126 0.506027 129.955 2.47414 133.059L38.0964 189.252C40.4083 192.899 44.8647 194.562 49.0006 193.321L151.798 162.482C157.408 160.799 160.23 154.541 157.778 149.222L91.6953 5.87265C88.4726 -1.11816 78.7573 -1.69199 74.734 4.87082L2.39749 122.867ZM89.9395 38.6438C88.535 35.3938 83.7788 35.8944 83.0817 39.3656L57.64 166.044C57.1035 168.715 59.6044 170.996 62.215 170.217L133.24 149.015C135.313 148.397 136.381 146.107 135.522 144.121L89.9395 38.6438Z" fill="#2D3748"/>
</svg>

<svg fill="none" xmlns="http://www.w3.org/2000/svg" viewBox="0 0 159 194"><path fill-rule="evenodd" clip-rule="evenodd" d="M2.4 122.9c-2 3.1-1.9 7 0 10.2l35.7 56.2a10 10 0 0 0 10.9 4l102.8-30.8c5.6-1.7 8.4-8 6-13.3L91.7 6c-3.2-7-13-7.6-17-1zm87.5-84.3a3.6 3.6 0 0 0-6.8.8L57.6 166c-.5 2.7 2 5 4.6 4.2l71-21.2a3.6 3.6 0 0 0 2.3-4.9z" fill="#2D3748"/></svg>
